images/yoga-color.svg

<svg width="48" height="48" viewBox="0 0 48 48" fill="none" xmlns="http://www.w3.org/2000/svg">
<path d="M46 38H2V40H46V38Z" fill="#FF754C"/>
<path d="M9 9C11.209 9 13 10.79 13 13C13 15.208 11.209 17 9 17C6.791 17 5 15.208 5 13C5 10.79 6.791 9 9 9Z" fill="#FFB74D"/>
<path d="M13 22L21 34" stroke="#BA68C8" stroke-width="8" stroke-miterlimit="10" stroke-linecap="round"/>
<path d="M13 20L21 18L27 13" stroke="#FFB74D" stroke-width="4" stroke-miterlimit="10" stroke-linecap="round" stroke-linejoin="round"/>
<path d="M11.0041 20.102C11.0041 20.089 11.0031 20.077 11.0031 20.064C11.0031 20.077 11.0031 20.089 11.0041 20.102Z" fill="#AB47BC"/>
<path d="M17.156 21.0231L13.486 21.9411C13.322 21.9811 13.159 22.0001 12.998 22.0001C12.102 22.0001 11.287 21.3941 11.06 20.4841C11.028 20.3561 11.011 20.2281 11.004 20.1011C11.047 24.3731 13.652 23.9591 13.968 23.8801L18.334 22.7881L17.156 21.0231Z" fill="#AB47BC"/>
<path d="M40.685 21.2871C40.014 20.0811 38.493 19.6441 37.286 20.3161L28.554 24.7981C28.351 24.9111 28.164 25.0521 28 25.2161L22.657 29.2741L16.387 34.2901L17.672 36.2181C18.442 37.3751 19.711 38.0001 21.004 38.0001C21.766 38.0001 22.537 37.7821 23.219 37.3281C23.301 37.2731 23.365 37.2041 23.442 37.1451C23.608 37.0531 23.764 36.9451 23.897 36.8131L31.288 29.0001L39.714 24.6871C40.921 24.0161 41.355 22.4941 40.685 21.2871Z" fill="#5EC08F"/>
<path d="M24 43L20.5359 40H27.4641L24 43Z" fill="#FF754C"/>
</svg>

<?xml version="1.0" encoding="iso-8859-1"?>
<!-- Generator: Adobe Illustrator 19.1.1, SVG Export Plug-In . SVG Version: 6.00 Build 0)  -->
<svg version="1.1"  xmlns="http://www.w3.org/2000/svg" xmlns:xlink="http://www.w3.org/1999/xlink" x="0px" y="0px"
	 viewBox="0 0 48 48" style="enable-background:new 0 0 48 48;" xml:space="preserve">
<rect x="2" y="38" style="fill:#FF754C;" width="44" height="2"/>
<path style="fill:#FFB74D;" d="M9,9c2.209,0,4,1.79,4,4c0,2.208-1.791,4-4,4s-4-1.792-4-4C5,10.79,6.791,9,9,9"/>
<line style="fill:none;stroke:#BA68C8;stroke-width:8;stroke-linecap:round;stroke-miterlimit:10;" x1="13" y1="22" x2="21" y2="34"/>
<polyline style="fill:none;stroke:#FFB74D;stroke-width:4;stroke-linecap:round;stroke-linejoin:round;stroke-miterlimit:10;" points="
	13,20 21,18 27,13 "/>
<g>
	<path style="fill:#AB47BC;" d="M11.004,20.102c0-0.013-0.001-0.025-0.001-0.038C11.003,20.077,11.003,20.089,11.004,20.102z"/>
	<path style="fill:#AB47BC;" d="M17.156,21.023l-3.67,0.918C13.322,21.981,13.159,22,12.998,22c-0.896,0-1.711-0.606-1.938-1.516
		c-0.032-0.128-0.049-0.256-0.056-0.383c0.043,4.272,2.648,3.858,2.964,3.779l4.366-1.092L17.156,21.023z"/>
</g>
<path style="fill:#5EC08F;" d="M40.685,21.287c-0.671-1.206-2.192-1.643-3.399-0.971l-8.732,4.482
	c-0.203,0.113-0.39,0.254-0.554,0.418l-5.343,4.058l-6.27,5.016l1.285,1.928C18.442,37.375,19.711,38,21.004,38
	c0.762,0,1.533-0.218,2.215-0.672c0.082-0.055,0.146-0.124,0.223-0.183c0.166-0.092,0.322-0.2,0.455-0.332L31.288,29l8.426-4.313
	C40.921,24.016,41.355,22.494,40.685,21.287z"/>
</svg>
